assets/img/icon/close-gray-24px.svg

<svg height="24" viewBox="0 0 24 24" width="24" xmlns="http://www.w3.org/2000/svg"><g fill="none" fill-rule="evenodd" transform="matrix(.70710678 .70710678 -.70710678 .70710678 12 -10.627417)"><path d="m0 0h32v32h-32z"/><path d="m24 17.3333333h-6.6666667v6.6666667c0 .7363797-.5969536 1.3333333-1.3333333 1.3333333-.7363797 0-1.3333333-.5969536-1.3333333-1.3333333v-6.6666667h-6.6666667c-.73637967 0-1.33333333-.5969536-1.33333333-1.3333333 0-.7363797.59695366-1.3333333 1.33333333-1.3333333h6.6666667v-6.6666667c0-.73637967.5969536-1.33333333 1.3333333-1.33333333.7363797 0 1.3333333.59695366 1.3333333 1.33333333v6.6666667h6.6666667c.7363797 0 1.3333333.5969536 1.3333333 1.3333333 0 .7363797-.5969536 1.3333333-1.3333333 1.3333333z" fill="#545e6f" fill-rule="nonzero"/></g></svg>

<?xml version="1.0" encoding="UTF-8"?>
<svg width="24px" height="24px" viewBox="0 0 24 24" version="1.1" xmlns="http://www.w3.org/2000/svg" xmlns:xlink="http://www.w3.org/1999/xlink">
    <!-- Generator: Sketch 51.3 (57544) - http://www.bohemiancoding.com/sketch -->
    <title>close-24px copy</title>
    <desc>Created with Sketch.</desc>
    <defs></defs>
    <g id="close-24px-copy" stroke="none" stroke-width="1" fill="none" fill-rule="evenodd">
        <g id="baseline-add-24px" transform="translate(12.000000, 12.000000) rotate(45.000000) translate(-12.000000, -12.000000) translate(-4.000000, -4.000000)">
            <polygon id="Shape" points="0 0 32 0 32 32 0 32"></polygon>
            <path d="M24,17.3333333 L17.3333333,17.3333333 L17.3333333,24 C17.3333333,24.7363797 16.7363797,25.3333333 16,25.3333333 L16,25.3333333 C15.2636203,25.3333333 14.6666667,24.7363797 14.6666667,24 L14.6666667,17.3333333 L8,17.3333333 C7.26362033,17.3333333 6.66666667,16.7363797 6.66666667,16 L6.66666667,16 C6.66666667,15.2636203 7.26362033,14.6666667 8,14.6666667 L14.6666667,14.6666667 L14.6666667,8 C14.6666667,7.26362033 15.2636203,6.66666667 16,6.66666667 L16,6.66666667 C16.7363797,6.66666667 17.3333333,7.26362033 17.3333333,8 L17.3333333,14.6666667 L24,14.6666667 C24.7363797,14.6666667 25.3333333,15.2636203 25.3333333,16 L25.3333333,16 C25.3333333,16.7363797 24.7363797,17.3333333 24,17.3333333 Z" id="Shape" fill="#545E6F" fill-rule="nonzero"></path>
        </g>
    </g>
</svg>
